X: 5
T:The Stool Of Repentance
M:6/8
L:1/8
R:jig
K:A
|:a2e c2A|agf edc|aff f2e|fag f2e|
a2e c2A|agf edc|d2e f2e|fac B2A:|
|:cAA eAA|cAc edc|dBB fBB|dBd fed|
cAA eAA|aga edc|d2e f2e|fac B2A:|
